contributed-vectors/flipaclip.svg

<?xml version="1.0" encoding="UTF-8" standalone="no"?>
<svg
   xmlns:dc="http://purl.org/dc/elements/1.1/"
   xmlns:cc="http://creativecommons.org/ns#"
   xmlns:rdf="http://www.w3.org/1999/02/22-rdf-syntax-ns#"
   xmlns:svg="http://www.w3.org/2000/svg"
   xmlns="http://www.w3.org/2000/svg"
   xmlns:sodipodi="http://sodipodi.sourceforge.net/DTD/sodipodi-0.dtd"
   xmlns:inkscape="http://www.inkscape.org/namespaces/inkscape"
   width="192"
   height="192"
   viewBox="0 0 192 192"
   fill="none"
   version="1.1"
   id="svg15"
   sodipodi:docname="flipaclip.svg"
   inkscape:version="1.0.1 (3bc2e813f5, 2020-09-07)"
   inkscape:export-filename="/home/jphilippe/github/delta/android/contributed-vectors/flipaclip.png"
   inkscape:export-xdpi="96"
   inkscape:export-ydpi="96">
  <metadata
     id="metadata19">
    <rdf:RDF>
      <cc:Work
         rdf:about="">
        <dc:format>image/svg+xml</dc:format>
        <dc:type
           rdf:resource="http://purl.org/dc/dcmitype/StillImage" />
      </cc:Work>
    </rdf:RDF>
  </metadata>
  <sodipodi:namedview
     pagecolor="#ffffff"
     bordercolor="#666666"
     borderopacity="1"
     objecttolerance="10"
     gridtolerance="10"
     guidetolerance="10"
     inkscape:pageopacity="0"
     inkscape:pageshadow="2"
     inkscape:window-width="1884"
     inkscape:window-height="1052"
     id="namedview17"
     showgrid="false"
     inkscape:zoom="0.84244792"
     inkscape:cx="367.32985"
     inkscape:cy="52.864348"
     inkscape:window-x="36"
     inkscape:window-y="0"
     inkscape:window-maximized="1"
     inkscape:current-layer="svg15" />
  <path
     fill-rule="evenodd"
     clip-rule="evenodd"
     d="m 30,19 h 133 c 5.52,0 10,4.48 10,10 v 133 c 0,5.52 -4.48,10 -10,10 H 30 c -5.52,0 -10,-4.48 -10,-10 V 29 c 0,-5.52 4.48,-10 10,-10 z"
     fill="#ffffff"
     id="path2" />
  <path
     d="m 81.6901,62.45 c 7.84,-2.76 16.52,-1.62 23.8499,2.07 6.93,3.49 13.3,7.93 18.68,13.53 4.9,5.09 8.39,11.46 8.26,18.67 -0.08,4.48 -1.29,8.97 -3.64,12.79 -1.09,1.76 -2.4,3.35 -3.75,4.91 -1.59,1.85 -3.28,3.59 -5.12,5.19 -4.8,4.16 -10.22,6.95 -16.38,8.52 -7.5799,1.93 -15.4399,3.01 -23.0499,0.53 -5.2,-1.7 -9.69,-4.98 -13.25,-9.11 -2.48,-2.87 -4.43,-6.22 -5.54,-9.85 -1.28,-4.17 -1.32,-8.48 -1.13,-12.8 0.27,-6.07 1.71,-12.01 4.25,-17.52 2.63,-5.7 6.46,-11.02 11.79,-14.45 1.6,-1.01 3.28,-1.84 5.03,-2.48 1.14,-0.42 0.65,-2.26 -0.51,-1.84 -6.96,2.53 -12.35,7.79 -16.03,14.13 -3.04,5.24 -5.13,11.2 -5.96,17.19 -1.15,8.25 -0.91,17.03 3.43,24.37 2.78,4.7 6.9,8.84 11.61,11.61 7.71,4.53 16.78,4.86 25.35,3.12 6.0799,-1.24 12.0199,-3.1 17.1999,-6.59 3.82,-2.57 7.13,-5.71 10.11,-9.21 3.09,-3.62 5.51,-7.51 6.66,-12.18 0.83,-3.38 1.06,-6.91 0.56,-10.36 -0.61,-4.16 -2.36,-8.09 -4.8,-11.5 -2.1,-2.93 -4.63,-5.48 -7.3,-7.88 -3.15,-2.83 -6.5,-5.27 -10.15,-7.42 -3.98,-2.35 -8.03,-4.62 -12.5499,-5.78 -3.48,-0.89 -7.12,-1.29 -10.7,-1.03 -2.54,0.18 -5.04,0.69 -7.45,1.53 -1.12,0.41 -0.63,2.25 0.53,1.84 z"
     fill="#000000"
     id="path4"
     style="fill:#56595b;fill-opacity:1" />
  <path
     d="m 122.59,94.28 c -0.58,-2.35 -1.38,-4.64 -2.37,-6.85 -1.07,-2.4 -2.37,-4.69 -3.89,-6.82 -0.62,-0.87 -1.27,-1.72 -1.95,-2.54 -0.05,-0.06 -0.44,-0.54 -0.28,-0.29 -0.16,-0.25 -0.24,-0.49 -0.44,-0.73 -0.34,-0.4 -0.77,-0.75 -1.31,-0.81 -1.36,-0.15 -1.83,1.25 -2.43,2.17 -0.76,1.14 -1.51,2.3 -2.24,3.46 -1.3,2.06 -2.54,4.16 -3.75,6.28 -0.6,-0.89 -1.38,-1.65 -2.35,-2.27 -3,-1.91 -6.59,-2.03 -9.8,-0.87 C 90.73,78.97 89.05,73.05 86.74,67.37 86.49,66.76 85.67,66.36 85.15,66.95 79.6,73.24 74.56,79.97 70.14,87.1 c -0.23,0.37 -0.14,0.85 0.15,1.15 0.73,0.78 1.76,1.64 2.84,1.83 1.33,0.23 2.75,0.19 4.09,0.31 2.45,0.21 4.9,0.49 7.35,0.8 -1.7,3.03 -2.33,6.68 -1.16,9.95 1.24,3.18 3.81,5.59 6.92,6.69 -3.15,3.21 -5.89,6.82 -8.1,10.74 -0.47,0.83 -1.21,1.74 -0.81,2.74 0.42,1.06 1.72,1.14 2.68,1.36 2.35,0.53 4.72,0.93 7.11,1.21 2.64,0.31 5.3,0.46 7.96,0.44 1.04,-0.01 2.48,0.18 3.45,-0.21 0.89,-0.35 1.61,-1.12 1.79,-2.08 0.2,-1.09 -0.27,-2.37 -0.53,-3.42 -0.27,-1.08 -0.57,-2.15 -0.93,-3.2 -0.52,-1.53 -1.13,-3.04 -1.89,-4.46 -0.7,-1.29 -1.45,-2.31 -2.43,-3.21 0.98,-0.35 1.9,-0.84 2.67,-1.52 1.87,-1.65 2.94,-4.15 3.56,-6.52 0.17,-0.65 0.3,-1.31 0.41,-1.98 0.24,0.08 0.49,0.12 0.74,0.15 1.36,0.12 2.73,0.23 4.09,0.33 2.15,0.17 4.3,0.32 6.46,0.44 1.27,0.07 2.58,0.21 3.85,0.11 1.01,-0.08 2.06,-0.44 2.46,-1.47 0.34,-0.96 -0.05,-2.05 -0.28,-3 z m -49.63,-6.3 c -0.28,-0.16 -0.54,-0.35 -0.78,-0.56 3.98,-6.33 8.43,-12.34 13.33,-18 0.83,2.16 1.57,4.35 2.22,6.57 -1.48,1.26 -3.01,2.67 -4.57,4.28 -2.73,2.82 -4.93,5.62 -6.68,8.16 -0.73,-0.06 -1.46,-0.13 -2.19,-0.18 -0.52,-0.04 -0.89,-0.02 -1.33,-0.27 z m 29.58,33.67 c -0.07,0.32 -0.31,0.54 -0.61,0.67 -0.07,0.03 -0.09,0.05 -0.1,0.06 -0.02,-0.01 -0.08,-0.02 -0.2,-0.04 -0.33,-0.03 -0.69,0.03 -1.02,0.04 -2.17,0.06 -4.35,0.01 -6.52,-0.15 -2.25,-0.16 -4.49,-0.44 -6.71,-0.85 -0.93,-0.17 -1.86,-0.36 -2.79,-0.57 -0.39,-0.09 -0.87,-0.28 -1.29,-0.31 0.02,-0.04 0.06,-0.08 0.08,-0.12 0.13,-0.21 0.24,-0.44 0.36,-0.66 0.66,-1.18 1.37,-2.33 2.13,-3.46 4.91,2.28 10.45,2.26 15.38,0.05 0.24,0.74 0.45,1.49 0.65,2.24 0.14,0.53 0.27,1.07 0.39,1.61 0.08,0.46 0.34,1.06 0.25,1.49 z m 0.87,-24.5 c -0.32,2.25 -1.02,4.55 -2.33,6.43 -1.18,1.7 -2.86,2.42 -4.85,2.81 -2.48,0.49 -5.05,0.05 -7.21,-1.27 -0.26,-0.16 -0.51,-0.33 -0.76,-0.51 -0.06,-0.05 -0.24,-0.19 -0.27,-0.21 -0.17,-0.14 -0.34,-0.29 -0.5,-0.45 -0.98,-0.94 -1.77,-2.06 -2.26,-3.32 -0.85,-2.38 -0.61,-4.86 0.35,-7.17 0.31,-0.76 0.71,-1.49 1.15,-2.19 0.14,-0.22 0.29,-0.43 0.44,-0.65 0.01,-0.01 0.02,-0.03 0.03,-0.05 0.03,-0.03 0.06,-0.07 0.05,-0.07 0.12,-0.14 0.24,-0.29 0.36,-0.43 2.85,-3.23 7.26,-4.85 11.4,-3.35 1.63,0.59 3.18,1.73 3.86,3.37 0.9,2.15 0.86,4.8 0.54,7.06 z m 17.54,-0.46 c -0.25,0.21 -0.79,0.16 -1.1,0.16 -2.56,0.03 -5.13,-0.21 -7.68,-0.41 0.08,-0.38 0.17,-0.76 0.23,-1.14 0.15,-1.12 0.2,-2.24 0.14,-3.37 -0.18,-3.41 -1.2,-6.71 -2.84,-9.7 0.67,-1.06 1.35,-2.11 2.04,-3.15 0.13,-0.19 0.22,-0.37 0.33,-0.57 0.03,-0.08 0.07,-0.16 0.1,-0.24 0.01,-0.01 0.01,-0.02 0.02,-0.03 0.24,0.28 0.41,0.63 0.65,0.92 0.57,0.68 1.12,1.37 1.63,2.09 1.28,1.77 2.42,3.65 3.39,5.61 1.03,2.07 1.86,4.23 2.5,6.46 0.23,0.79 0.43,1.59 0.61,2.39 0.07,0.33 0.27,0.75 -0.02,0.98 z"
     fill="#000000"
     id="path6"
     style="fill:#56595b;fill-opacity:1" />
  <defs
     id="defs13">
    <clipPath
       id="clip0">
      <rect
         width="192"
         height="192"
         fill="white"
         id="rect10" />
    </clipPath>
  </defs>
</svg>

<svg width="192" height="192" viewBox="0 0 192 192" fill="none" xmlns="http://www.w3.org/2000/svg">
<g clip-path="url(#clip0)">
<path fill-rule="evenodd" clip-rule="evenodd" d="M30 19H163C168.52 19 173 23.48 173 29V162C173 167.52 168.52 172 163 172H30C24.48 172 20 167.52 20 162V29C20 23.48 24.48 19 30 19Z" fill="white"/>
<path d="M81.6901 62.45C89.5301 59.69 98.2101 60.83 105.54 64.52C112.47 68.01 118.84 72.45 124.22 78.05C129.12 83.14 132.61 89.51 132.48 96.72C132.4 101.2 131.19 105.69 128.84 109.51C127.75 111.27 126.44 112.86 125.09 114.42C123.5 116.27 121.81 118.01 119.97 119.61C115.17 123.77 109.75 126.56 103.59 128.13C96.0101 130.06 88.1501 131.14 80.5401 128.66C75.3401 126.96 70.8501 123.68 67.2901 119.55C64.8101 116.68 62.8601 113.33 61.7501 109.7C60.4701 105.53 60.4301 101.22 60.6201 96.9C60.8901 90.83 62.3301 84.89 64.8701 79.38C67.5001 73.68 71.3301 68.36 76.6601 64.93C78.2601 63.92 79.9401 63.09 81.6901 62.45C82.8301 62.03 82.3401 60.19 81.1801 60.61C74.2201 63.14 68.8301 68.4 65.1501 74.74C62.1101 79.98 60.0201 85.94 59.1901 91.93C58.0401 100.18 58.2801 108.96 62.6201 116.3C65.4001 121 69.5201 125.14 74.2301 127.91C81.9401 132.44 91.0101 132.77 99.5801 131.03C105.66 129.79 111.6 127.93 116.78 124.44C120.6 121.87 123.91 118.73 126.89 115.23C129.98 111.61 132.4 107.72 133.55 103.05C134.38 99.67 134.61 96.14 134.11 92.69C133.5 88.53 131.75 84.6 129.31 81.19C127.21 78.26 124.68 75.71 122.01 73.31C118.86 70.48 115.51 68.04 111.86 65.89C107.88 63.54 103.83 61.27 99.3101 60.11C95.8301 59.22 92.1901 58.82 88.6101 59.08C86.0701 59.26 83.5701 59.77 81.1601 60.61C80.0401 61.02 80.5301 62.86 81.6901 62.45Z" fill="black"/>
<path d="M122.59 94.28C122.01 91.93 121.21 89.64 120.22 87.43C119.15 85.03 117.85 82.74 116.33 80.61C115.71 79.74 115.06 78.89 114.38 78.07C114.33 78.01 113.94 77.53 114.1 77.78C113.94 77.53 113.86 77.29 113.66 77.05C113.32 76.65 112.89 76.3 112.35 76.24C110.99 76.09 110.52 77.49 109.92 78.41C109.16 79.55 108.41 80.71 107.68 81.87C106.38 83.93 105.14 86.03 103.93 88.15C103.33 87.26 102.55 86.5 101.58 85.88C98.58 83.97 94.99 83.85 91.78 85.01C90.73 78.97 89.05 73.05 86.74 67.37C86.49 66.76 85.67 66.36 85.15 66.95C79.6 73.24 74.56 79.97 70.14 87.1C69.91 87.47 70 87.95 70.29 88.25C71.02 89.03 72.05 89.89 73.13 90.08C74.46 90.31 75.88 90.27 77.22 90.39C79.67 90.6 82.12 90.88 84.57 91.19C82.87 94.22 82.24 97.87 83.41 101.14C84.65 104.32 87.22 106.73 90.33 107.83C87.18 111.04 84.44 114.65 82.23 118.57C81.76 119.4 81.02 120.31 81.42 121.31C81.84 122.37 83.14 122.45 84.1 122.67C86.45 123.2 88.82 123.6 91.21 123.88C93.85 124.19 96.51 124.34 99.17 124.32C100.21 124.31 101.65 124.5 102.62 124.11C103.51 123.76 104.23 122.99 104.41 122.03C104.61 120.94 104.14 119.66 103.88 118.61C103.61 117.53 103.31 116.46 102.95 115.41C102.43 113.88 101.82 112.37 101.06 110.95C100.36 109.66 99.61 108.64 98.63 107.74C99.61 107.39 100.53 106.9 101.3 106.22C103.17 104.57 104.24 102.07 104.86 99.7C105.03 99.05 105.16 98.39 105.27 97.72C105.51 97.8 105.76 97.84 106.01 97.87C107.37 97.99 108.74 98.1 110.1 98.2C112.25 98.37 114.4 98.52 116.56 98.64C117.83 98.71 119.14 98.85 120.41 98.75C121.42 98.67 122.47 98.31 122.87 97.28C123.21 96.32 122.82 95.23 122.59 94.28ZM72.96 87.98C72.68 87.82 72.42 87.63 72.18 87.42C76.16 81.09 80.61 75.08 85.51 69.42C86.34 71.58 87.08 73.77 87.73 75.99C86.25 77.25 84.72 78.66 83.16 80.27C80.43 83.09 78.23 85.89 76.48 88.43C75.75 88.37 75.02 88.3 74.29 88.25C73.77 88.21 73.4 88.23 72.96 87.98ZM102.54 121.65C102.47 121.97 102.23 122.19 101.93 122.32C101.86 122.35 101.84 122.37 101.83 122.38C101.81 122.37 101.75 122.36 101.63 122.34C101.3 122.31 100.94 122.37 100.61 122.38C98.44 122.44 96.26 122.39 94.09 122.23C91.84 122.07 89.6 121.79 87.38 121.38C86.45 121.21 85.52 121.02 84.59 120.81C84.2 120.72 83.72 120.53 83.3 120.5C83.32 120.46 83.36 120.42 83.38 120.38C83.51 120.17 83.62 119.94 83.74 119.72C84.4 118.54 85.11 117.39 85.87 116.26C90.78 118.54 96.32 118.52 101.25 116.31C101.49 117.05 101.7 117.8 101.9 118.55C102.04 119.08 102.17 119.62 102.29 120.16C102.37 120.62 102.63 121.22 102.54 121.65ZM103.41 97.15C103.09 99.4 102.39 101.7 101.08 103.58C99.9 105.28 98.22 106 96.23 106.39C93.75 106.88 91.18 106.44 89.02 105.12C88.76 104.96 88.51 104.79 88.26 104.61C88.2 104.56 88.02 104.42 87.99 104.4C87.82 104.26 87.65 104.11 87.49 103.95C86.51 103.01 85.72 101.89 85.23 100.63C84.38 98.25 84.62 95.77 85.58 93.46C85.89 92.7 86.29 91.97 86.73 91.27C86.87 91.05 87.02 90.84 87.17 90.62C87.18 90.61 87.19 90.59 87.2 90.57C87.23 90.54 87.26 90.5 87.25 90.5C87.37 90.36 87.49 90.21 87.61 90.07C90.46 86.84 94.87 85.22 99.01 86.72C100.64 87.31 102.19 88.45 102.87 90.09C103.77 92.24 103.73 94.89 103.41 97.15ZM120.95 96.69C120.7 96.9 120.16 96.85 119.85 96.85C117.29 96.88 114.72 96.64 112.17 96.44C112.25 96.06 112.34 95.68 112.4 95.3C112.55 94.18 112.6 93.06 112.54 91.93C112.36 88.52 111.34 85.22 109.7 82.23C110.37 81.17 111.05 80.12 111.74 79.08C111.87 78.89 111.96 78.71 112.07 78.51C112.1 78.43 112.14 78.35 112.17 78.27C112.18 78.26 112.18 78.25 112.19 78.24C112.43 78.52 112.6 78.87 112.84 79.16C113.41 79.84 113.96 80.53 114.47 81.25C115.75 83.02 116.89 84.9 117.86 86.86C118.89 88.93 119.72 91.09 120.36 93.32C120.59 94.11 120.79 94.91 120.97 95.71C121.04 96.04 121.24 96.46 120.95 96.69Z" fill="black"/>
</g>
<defs>
<clipPath id="clip0">
<rect width="192" height="192" fill="white"/>
</clipPath>
</defs>
</svg>
